packages/client-app/static/animations/inbox-zero/oasis/oasis.hyperesources/treetrunk-top.svg

<svg xmlns="http://www.w3.org/2000/svg" preserveAspectRatio="xMidYMid" width="77.875" height="91.25" viewBox="0 0 77.875 91.25"><defs><style>.cls-1 { fill: #b0791a; opacity: 0.5; fill-rule: evenodd; }</style></defs><path d="M48.016 89.062c-12.007 0-23.701.756-34.948 2.178-.338-.556-.691-1.098-1.018-1.665-1.191-2.062-2.283-4.154-3.292-6.267h56.635c3.977 2.785 8.15 5.242 12.482 7.339-9.673-1.036-19.652-1.585-29.859-1.585zm-45.536-23.359h44.168c2.913 3.654 6.088 7.011 9.454 10.108h-50.516c-1.239-3.335-2.28-6.708-3.106-10.108zm-2.494-18.175h35.401c1.098 2.347 2.294 4.67 3.614 6.956.732 1.268 1.499 2.503 2.282 3.721h-40.295c-.548-3.552-.881-7.117-1.002-10.677zm1.309-18.769h27.702c.838 3.793 1.943 7.556 3.29 11.272h-32.249c.185-3.786.604-7.551 1.257-11.272zm5.18-18.2h20.398c.049 3.565.316 7.139.792 10.703h-24.726c.959-3.634 2.134-7.21 3.536-10.703zm5.046-10.552l11.402 3.055h-13.03c.525-1.027 1.063-2.047 1.628-3.055z" class="cls-1"/></svg>

<svg xmlns="http://www.w3.org/2000/svg" xmlns:xlink="http://www.w3.org/1999/xlink" preserveAspectRatio="xMidYMid" width="77.875" height="91.25" viewBox="0 0 77.875 91.25">
  <defs>
    <style>
      .cls-1 {
        fill: #b0791a;
        opacity: 0.5;
        fill-rule: evenodd;
      }
    </style>
  </defs>
  <path d="M48.016,89.062 C36.009,89.062 24.315,89.818 13.068,91.240 C12.730,90.684 12.377,90.142 12.050,89.575 C10.859,87.513 9.767,85.421 8.758,83.308 L65.393,83.308 C69.370,86.093 73.543,88.550 77.875,90.647 C68.202,89.611 58.223,89.062 48.016,89.062 ZM2.480,65.703 L46.648,65.703 C49.561,69.357 52.736,72.714 56.102,75.811 L5.586,75.811 C4.347,72.476 3.306,69.103 2.480,65.703 ZM-0.014,47.528 L35.387,47.528 C36.485,49.875 37.681,52.198 39.001,54.484 C39.733,55.752 40.500,56.987 41.283,58.205 L0.988,58.205 C0.440,54.653 0.107,51.088 -0.014,47.528 ZM1.295,28.759 L28.997,28.759 C29.835,32.552 30.940,36.315 32.287,40.031 L0.038,40.031 C0.223,36.245 0.642,32.480 1.295,28.759 ZM6.475,10.559 L26.873,10.559 C26.922,14.124 27.189,17.698 27.665,21.262 L2.939,21.262 C3.898,17.628 5.073,14.052 6.475,10.559 ZM11.521,0.007 L22.923,3.062 L9.893,3.062 C10.418,2.035 10.956,1.015 11.521,0.007 Z" class="cls-1"/>
</svg>
